X:1
T:Zwölf Gesänge, Op.3
T:Kriegslied des Mays
T:6. Kriegslied des Mays
T:Louise Reichardt
T:Achim von Arnim
T:Zwölf Gesänge, Op.3
T:OpenScore (CC0)
T:OpenScore (CC0)
C:Louise Reichardt
Z:Achim von Arnim
Z:OpenScore (CC0)
%%score 1 { 2 | ( 3 4 ) }
L:1/8
Q:1/4=100
M:2/4
K:A
V:1 treble nm="Voice"
V:2 treble nm="Piano"
V:3 bass 
V:4 bass 
V:1
"^Etwas lebhaft" E3/4 E/4 | A A B B | c2 A c/ d/ | e c d B | c2 z E3/4 E/4 | A A B B | c2 A c/ B/ | %7
w: Wenn des|Früh- lings Wa- chen|zie- hen, Ler- che|frisch die Trom- mel|rührt, ach da|möch- te ich mit|zie- hen, ach da|
 B B B ^D | E2 |[M:6/8] d2 c | B2 A G2 F | F E z d2 c | B2 B (f{e} d){c} B | (A3 c2 B) | A3 z :| %15
w: werd ich leicht ver-|führt,|Hand- geld|Druck und Kuss zu-|neh- men und ich|kann mich gar * nicht|schä- * *|men.|
V:2
 E/>E/ | [CA][CA] [EB][EB] | [Ec]2 [CA] [Ac]/[Bd]/ | [ce][Ac] [Bd][EB] | %4
 [Ac] [EAc]/>[EAc]/ [EAc] E/>E/ | [CA][CA] [EB][EB] | [Ec]2 [CA] [Ac]/[GB]/ | [GB][GB] [^DB]D | %8
 E2 |[M:6/8] G/B/d/B/E/c/ | D/G/B/D/C/A/ B,/E/G/B,/A,/F/ | %11
[I:staff +1] G,/B,/[I:staff -1]E/B,/[I:staff +1] G,/[I:staff -1]E/ D/E/B/E/C/E/ | %12
 D/F/B/F/D/F/ D/F/B/F/D/F/ | C/E/A/E/C/E/ B,/E/G/E/B,/E/ | C/E/A/E/C/E/ A :| %15
V:3
 z | [A,,A,][A,,A,] [E,G,][E,G,] | [A,,A,]2 z2 | A,2 [E,G,]2 | [A,,A,]A,/>A,/ A, z | %5
 [A,,A,][A,,A,] [E,G,][E,G,] | [A,,A,]2 z A, | B,B, B,,B,, | E,2 |[M:6/8] z2 z | E,2 z E,2 z | %11
 E,2 z G,2 A, | D,2 z D,2 z | E,2 z E,2 z | A,,2 z2 :| %15
V:4
 x | x4 | x4 | x4 | x4 | x4 | x4 | x2 x A, | G,2 |[M:6/8] x3 | x6 | x6 | x6 | x6 | x4 :| %15

